src/svg/codeopen.svg

<svg height="1000" width="1000" xmlns="http://www.w3.org/2000/svg"><path d="M120.528 652.366l336.474 224.316v-200.322l-186.372 -124.434zm-34.596 -80.352l107.694 -71.982 -107.694 -71.982v143.964zm457.002 304.668l336.474 -224.316 -150.102 -100.44 -186.372 124.434v200.322zm-42.966 -275.094l151.776 -101.556 -151.776 -101.556 -151.776 101.556zm-229.338 -153.45l186.372 -124.434v-200.322l-336.474 224.316zm535.68 51.894l107.694 71.982v-143.964zm-77.004 -51.894l150.102 -100.44 -336.474 -224.316v200.322zm270.63 -100.44v304.668q0 22.878 -18.972 35.712l-457.002 304.668q-11.718 7.254 -23.994 7.254t-23.994 -7.254l-457.002 -304.668q-18.972 -12.834 -18.972 -35.712v-304.668q0 -22.878 18.972 -35.712l457.002 -304.668q11.718 -7.254 23.994 -7.254t23.994 7.254l457.002 304.668q18.972 12.834 18.972 35.712z"/></svg>

<svg height="1000" width="1000" xmlns="http://www.w3.org/2000/svg"><path d="M120.5 652.3L457 876.7V676.3L270.6 551.9zM85.9 572l107.7 -72L85.9 428v144zM543 876.7L879.5 652.3 729.4 551.9 543 676.3v200.4zM500 601.6L651.8 500 500 398.4 348.2 500zM270.6 448.1L457 323.7V123.3L120.5 347.7zM806.4 500l107.7 72V428zm-77 -51.9L879.5 347.7 543 123.3v200.4zM1000 347.7v304.6q0 22.9 -19 35.8L524 992.7q-11.7 7.3 -24 7.3t-24 -7.3L19 688.1Q0 675.2 0 652.3V347.7q0 -22.9 19 -35.8L476 7.3Q487.7 0 500 0t24 7.3l457 304.6q19 12.9 19 35.8z"/></svg>
